!!! OTL: Berkowitz406
!!! Chapter: 1
!!! Section: III
!!! Page: 101
!!! Mode: 
!!! Encoder: DJB
**kern
*staff1
*I"Piano
=1-
*clefC3
*k[b-]
*F:
*M12/8
4.r
4.r
4.r
8r
8r
8c\
=2
8f\L
8c\
8c\J
8Bn/L
8c/
8c/J
8g\L
8c\
8c\J
8B/L
8c/
8c/J
=3
8a\L
8g\
8f\J
8g\L
8f\
8e\J
8f\L
8e\
8d\J
8e\L
8d\
8c\J
=4
8d\L
8e\
8f\J
8g\L
8a\
8b-\J
8cc\L
8b-\
8a\J
[4.b-\
=5
!!linebreak:original
8b-\L]
8d\
8e\J
8f\L
8g\
8a\J
8b-\L
8a\
8g\J
4a\
8a\
=6
4g\
8cc\
4a\
8f\
4g\
8cc\
4a\
8f\
=7
4g\
8r
[4.cc\
8cc\L]
8c\
8c\J
8c\L
8c\
8c\J
=8
8c\L
8c\
8c\J
8c\
8r
8r
4.r
8r
8r
8d\
=9
!!linebreak:original
8d\L
8e\
8f#\J
8g\L
8a\
8b-\J
8cc\L
8b-\
8a\J
[4.b-\
=10
4b-\]
8g\
4f#\
8a\
4d\
8f#\
4g\
[8c\
=11
8c\L]
8d\
8e\J
8f\L
8g\
8a\J
8b-\L
8a\
8g\J
[4.a\
=12
4a\]
8f\
4e\
8g\
4c\
8e\
8f\L
8f\
8f\J
=13
!!linebreak:original
4f\
8r
[4.e-\
8e-\L]
8e-\
8e-\J
8e-\L
8e-\
8e-\J
=14
4.e-\
4.c#\
4.d\
4.Bn/
=15
4c\
8f\
4e\
8g\
4f\
8a\
4g\
8b-\
=16
8a\L
8f\
8f\J
8f\L
8f\
8f\J
8f\
8r
2r
==
*-
